X:3306
T:Concertina Reel, The
R:reel
S:J\"orgen Fischer
H:The standard version is in D, #33. Also in A, #793.
Z:id:hn-reel-792
M:C|
K:G
~g3f g2dg|~g2fg edBd|edfd edfd|edfd ed (3B^cd|
g2dg ~g2dg|~g2fg edBA|(3B^cd ef ~g3e|1 dBAB G2 (3def:|2 dBAB G3A||
|:Bd~d2 ed~d2|Bd~d2 edBd|edfd edfd|edfd edBA|
Bd~d2 Bd~d2|Bd~d2 edBA|(3B^cd ef ~g3e|1 dBAB G3A:|2 dBAB G2 (3def||


